X: 1534
T: Andy's Saltire
R: jig
M: 6/8
K: Amajor
a3 aec|BcB BGE|EBE cEd-|d2c BGE|
a3 aec|BcB BGE|DFA EGB|cAG A3:|
B3 BGE|c2c c2A|BfB gBa-|a2g f^dB|
B3 BGE|c2c c2A|B^df agf|g3- gec|
B3 BGE|c2c c2A|BfB gBa-|a2e efg|
a3 aec|BcB BGE|DFA EGB|cAG A3||

